src/images/svg/symbols/polkadot.svg

<svg width="32" height="32" viewBox="0 0 32 32" fill="none" xmlns="http://www.w3.org/2000/svg">
<circle cx="16" cy="16" r="16" fill="#E6007A"/>
<path fill-rule="evenodd" clip-rule="evenodd" d="M20.6116 6.51691C20.6116 7.90696 18.6741 9.03382 16.284 9.03382C13.894 9.03382 11.9564 7.90696 11.9564 6.51691C11.9564 5.12686 13.894 4 16.284 4C18.6741 4 20.6116 5.12686 20.6116 6.51691ZM20.6116 25.4818C20.6116 26.8718 18.6741 27.9987 16.284 27.9987C13.894 27.9987 11.9564 26.8718 11.9564 25.4818C11.9564 24.0917 13.894 22.9648 16.284 22.9648C18.6741 22.9648 20.6116 24.0917 20.6116 25.4818ZM10.2535 12.518C11.4485 10.4482 11.4407 8.20649 10.2361 7.51099C9.03154 6.8155 7.08625 7.92958 5.89122 9.99938C4.69619 12.0692 4.70395 14.3109 5.90855 15.0064C7.11315 15.7019 9.05843 14.5878 10.2535 12.518ZM26.6595 16.9926C27.8633 17.6876 27.8703 19.9289 26.6753 21.9987C25.4803 24.0685 23.5357 25.183 22.3319 24.4879C21.1281 23.7929 21.121 21.5516 22.316 19.4818C23.5111 17.412 25.4557 16.2975 26.6595 16.9926ZM10.2366 24.488C11.4412 23.7925 11.449 21.5508 10.2539 19.481C9.05892 17.4112 7.11363 16.2972 5.90904 16.9926C4.70444 17.6881 4.69668 19.9299 5.89171 21.9996C7.08674 24.0694 9.03203 25.1835 10.2366 24.488ZM26.6763 10.0003C27.8713 12.0701 27.8642 14.3114 26.6604 15.0065C25.4567 15.7015 23.512 14.587 22.317 12.5172C21.122 10.4474 21.1291 8.2061 22.3329 7.51108C23.5366 6.81605 25.4813 7.93052 26.6763 10.0003Z" fill="white"/>
</svg>

<svg width="32" height="32" fill="none" xmlns="http://www.w3.org/2000/svg"><circle cx="16" cy="16" r="16" fill="#E6007A"/><path fill-rule="evenodd" clip-rule="evenodd" d="M20.612 6.517c0 1.39-1.938 2.517-4.328 2.517-2.39 0-4.328-1.127-4.328-2.517S13.894 4 16.284 4c2.39 0 4.328 1.127 4.328 2.517Zm0 18.965c0 1.39-1.938 2.517-4.328 2.517-2.39 0-4.328-1.127-4.328-2.517s1.938-2.517 4.328-2.517c2.39 0 4.328 1.127 4.328 2.517ZM10.254 12.518c1.194-2.07 1.187-4.312-.018-5.007-1.204-.696-3.15.419-4.345 2.488-1.195 2.07-1.187 4.312.018 5.007 1.204.696 3.15-.418 4.345-2.488Zm16.405 4.475c1.204.695 1.211 2.936.016 5.006-1.195 2.07-3.14 3.184-4.343 2.489-1.204-.695-1.211-2.936-.016-5.006 1.195-2.07 3.14-3.184 4.344-2.49Zm-16.422 7.495c1.204-.695 1.212-2.937.017-5.007s-3.14-3.184-4.345-2.488c-1.205.695-1.212 2.937-.017 5.007s3.14 3.183 4.345 2.488ZM26.677 10c1.194 2.07 1.187 4.311-.017 5.007-1.203.694-3.148-.42-4.343-2.49-1.195-2.07-1.188-4.31.016-5.006 1.204-.695 3.148.42 4.343 2.49Z" fill="#fff"/></svg>
